packages/kaspersky-hexa-ui-icons/src/iconsSVGs/28x20/FlagAf.svg

<svg width="28" height="20" viewBox="0 0 28 20" fill="none" xmlns="http://www.w3.org/2000/svg">
<g clip-path="url(#clip0_5138_281)">
<path d="M0 2C0 0.895431 0.895431 0 2 0H26C27.1046 0 28 0.895431 28 2V18C28 19.1046 27.1046 20 26 20H2C0.895431 20 0 19.1046 0 18V2Z" fill="white"/>
<mask id="mask0_5138_281" style="mask-type:luminance" maskUnits="userSpaceOnUse" x="0" y="0" width="28" height="20">
<path d="M0 2C0 0.895431 0.895431 0 2 0H26C27.1046 0 28 0.895431 28 2V18C28 19.1046 27.1046 20 26 20H2C0.895431 20 0 19.1046 0 18V2Z" fill="white"/>
</mask>
<g mask="url(#mask0_5138_281)">
<rect x="13.3333" width="14.6667" height="20" fill="#1AB11F"/>
<path fill-rule="evenodd" clip-rule="evenodd" d="M0 20H9.33333V0H0V20Z" fill="#262626"/>
<path fill-rule="evenodd" clip-rule="evenodd" d="M9.33334 20H18.6667V0H9.33334V20Z" fill="#DC0D18"/>
<path opacity="0.75" d="M10.6664 9.33331C10.6664 8.96512 10.9652 8.66632 11.3333 8.66632C11.7015 8.66632 12.0003 8.96512 12.0003 9.33331C12.0003 10.0718 12.4001 10.7176 12.9984 11.0648C13.3167 11.2495 13.4251 11.6575 13.2406 11.9759C13.0558 12.2943 12.6479 12.4026 12.3294 12.2181C11.3369 11.6422 10.6664 10.5664 10.6664 9.33331ZM16.0003 9.33331C16.0003 8.96523 16.2983 8.6665 16.6664 8.66632C17.0345 8.66632 17.3333 8.96512 17.3333 9.33331C17.3333 10.5146 16.7184 11.5518 15.7943 12.1429C15.4841 12.3412 15.0718 12.2508 14.8734 11.9407C14.675 11.6306 14.7654 11.2182 15.0755 11.0198C15.6328 10.6634 16.0003 10.041 16.0003 9.33331Z" fill="white"/>
<ellipse cx="14" cy="8.66669" rx="1.33333" ry="2" fill="white" fill-opacity="0.5"/>
</g>
</g>
<defs>
<clipPath id="clip0_5138_281">
<rect width="28" height="20" fill="white"/>
</clipPath>
</defs>
</svg>

<svg xmlns="http://www.w3.org/2000/svg" width="28" height="20" fill="none" viewBox="0 0 28 20"><g clip-path="url(#a)"><path fill="#fff" d="M0 2C0 .8954.8954 0 2 0h24c1.1046 0 2 .8954 2 2v16c0 1.1046-.8954 2-2 2H2c-1.1046 0-2-.8954-2-2z"/><mask id="b" width="28" height="20" x="0" y="0" maskUnits="userSpaceOnUse" style="mask-type:luminance"><path fill="#fff" d="M0 2C0 .8954.8954 0 2 0h24c1.1046 0 2 .8954 2 2v16c0 1.1046-.8954 2-2 2H2c-1.1046 0-2-.8954-2-2z"/></mask><g mask="url(#b)"><path fill="#1ab11f" d="M13.3333 0H28v20H13.3333z"/><path fill="#262626" fill-rule="evenodd" d="M0 20h9.3333V0H0z" clip-rule="evenodd"/><path fill="#dc0d18" fill-rule="evenodd" d="M9.3333 20h9.3334V0H9.3333z" clip-rule="evenodd"/><path fill="#fff" d="M10.6664 9.3333c0-.3682.2988-.667.6669-.667s.667.2988.667.667c0 .7385.3998 1.3843.9981 1.7315a.667.667 0 0 1 .2422.9111.667.667 0 0 1-.9112.2422c-.9925-.5759-1.663-1.6517-1.663-2.8848m5.3339 0c0-.368.298-.6668.6661-.667a.667.667 0 0 1 .6669.667c0 1.1813-.6149 2.2185-1.539 2.8096a.6668.6668 0 0 1-.7188-1.1231c.5573-.3564.9248-.9788.9248-1.6865"/><ellipse cx="14" cy="9" fill="#fff" rx="1" ry="2"/></g></g><defs><clipPath id="a"><path fill="#fff" d="M0 0h28v20H0z"/></clipPath></defs></svg>
